X: 26
T:Nyth y Gwcw
T:Cuckoo's Nest
M:4/4
L:1/8
Q:220
C:Trad
S:Blodau'r Grug Collection Vol. 2
A:Wales
Z:brian_martin12345@yahoo.com
K:Am
E2|FEFE D2d2|A2A2A2G2|FEFE D2 AB|c2c2c2E2|FEFE D2d2|A2A2A2G2|!
FEFE DEFG|A2A2d2:||
z2|defe d2d2|cBAG A4|defg a2a2|!
g2d2d3e|fefe d2d2|cBAG A3G|FEFE DEFG|A2A2d2:||
